X: 1
T: Bondpolska efter Viksta-Lasse
R: polska
O: Sweden
M: 3/4
L: 1/8
K: G
(B \
|: d)<G  B2 B(A/B/) | (c<F) A2>>(c2 | e<d) (cB) c>e | (g<e) (dG) B>B \
|  (d<G) B2 B(A/B/) | (c<F) A2>>(c2 | e<d) (cA) F>A | (A<B) G4 :|
|: (Ge | (3def g2 (B2 | A<c) (e>d) c>A | ((3BAB) (d{ed}B) (G2- \
|   Ge | (3def g2 (B2 | A<c) (e>d) c>A | (A<B) G4 :|
